material/.icons/material/checkbox-multiple-blank.svg

<svg xmlns="http://www.w3.org/2000/svg" viewBox="0 0 24 24"><path d="M22 16a2 2 0 01-2 2H8a2 2 0 01-2-2V4c0-1.11.89-2 2-2h12a2 2 0 012 2v12m-6 4v2H4a2 2 0 01-2-2V7h2v13h12z"/></svg>

<?xml version="1.0" encoding="UTF-8"?><!DOCTYPE svg PUBLIC "-//W3C//DTD SVG 1.1//EN" "http://www.w3.org/Graphics/SVG/1.1/DTD/svg11.dtd"><svg xmlns="http://www.w3.org/2000/svg" xmlns:xlink="http://www.w3.org/1999/xlink" version="1.1" id="mdi-checkbox-multiple-blank" width="24" height="24" viewBox="0 0 24 24"><path d="M22,16A2,2 0 0,1 20,18H8C6.89,18 6,17.1 6,16V4C6,2.89 6.89,2 8,2H20A2,2 0 0,1 22,4V16M16,20V22H4A2,2 0 0,1 2,20V7H4V20H16Z" /></svg>
